img/part5/2_燕山甘栗日文標.svg

<svg width="25" height="111" viewBox="0 0 25 111" fill="none" xmlns="http://www.w3.org/2000/svg"><path d="M6.636 12.4713C6.996 12.5433 7.392 12.5793 7.698 12.7413C7.95 12.8853 8.058 13.0473 8.094 13.5513C8.166 14.3973 8.202 15.7473 8.202 17.0793C8.238 18.9333 8.22 20.7693 8.274 21.9393C8.382 24.3513 10.092 24.8553 13.134 24.8553C14.826 24.8553 16.194 24.7473 16.986 24.5493C17.724 24.3513 18.066 24.0273 18.066 23.5773C18.066 22.8393 17.238 22.4793 16.446 22.4793C16.068 22.4793 14.358 23.0553 12.108 23.0553C10.146 23.0553 9.822 22.7493 9.804 21.2193C9.768 20.3553 9.858 18.2853 9.948 16.6293C10.002 15.7113 10.038 14.9013 10.11 14.4873C10.236 13.7853 10.596 13.6413 10.596 13.2453C10.596 12.6513 9.282 11.6613 8.166 11.6613C7.662 11.6613 7.05 11.9493 6.6 12.2013L6.636 12.4713ZM12.918 10.9053C13.332 10.9773 13.638 11.0133 13.962 11.1213C14.322 11.2293 14.502 11.4093 14.52 11.7333C14.592 12.7053 14.538 14.5593 14.52 15.4773C14.502 16.2513 14.412 17.8893 14.268 18.4653C14.142 18.9873 13.926 19.0233 13.548 19.0233C13.206 19.0233 12.234 18.8253 11.334 18.5913L11.244 18.8613C12 19.2933 12.792 19.7613 13.044 20.4093C13.242 20.8953 13.476 21.0573 13.926 21.0573C14.862 21.0573 15.492 20.3733 15.708 19.4913C15.96 18.5733 16.068 16.5573 16.122 15.3693C16.176 14.4153 16.266 13.5333 16.32 12.8853C16.392 12.2193 16.788 11.9673 16.788 11.6073C16.788 10.9953 15.492 10.0413 14.358 10.0413C13.926 10.0413 13.386 10.3293 12.9 10.6533L12.918 10.9053ZM9.084 17.5473C10.938 16.8093 14.214 16.1073 16.338 15.9093C17.94 15.7833 18.498 16.0353 19.344 16.0353C20.028 16.0353 20.424 15.8733 20.424 15.2793C20.424 14.3793 19.29 13.9293 18.372 13.9293C18.102 13.9293 17.31 14.0733 15.294 14.5413C13.692 14.9193 10.578 15.6393 9.048 16.0533C7.68 16.4133 5.43 16.9713 4.962 16.9713C4.512 16.9713 4.116 16.6833 3.738 16.1973L3.486 16.2873C3.468 16.7913 3.468 17.2773 3.63 17.6013C3.972 18.3393 4.656 19.0413 5.268 19.0413C5.862 19.0413 6.834 18.3753 9.084 17.5473ZM9.786 36.6353C10.128 36.7793 10.614 36.9953 10.884 37.2473C11.082 37.4273 11.136 37.6793 10.956 38.0213C10.434 39.0653 7.698 43.6013 6.51 45.6713C5.52 47.3633 4.548 48.6773 4.548 49.6133C4.548 50.2793 4.944 50.9633 5.61 50.9633C6.294 50.9633 6.618 50.4773 6.816 49.9193C7.104 49.0733 7.41 47.9753 7.86 46.9493C8.508 45.4553 9.768 43.8713 11.226 43.8713C12.198 43.8713 12.468 44.4833 12.468 45.2393C12.468 46.3913 12.27 47.3813 12.288 48.6053C12.306 50.0993 13.242 51.0533 14.952 51.0533C17.454 51.0533 19.632 49.2893 20.028 45.0593L19.74 44.9873C18.984 46.9313 17.4 49.0553 15.474 49.0553C14.754 49.0553 14.25 48.7673 14.25 47.8673C14.25 46.8593 14.304 46.0673 14.232 45.2033C14.124 43.8353 13.296 43.0613 11.766 43.0613C11.19 43.0613 10.38 43.2413 9.498 43.6913C9.39 43.7453 9.336 43.6913 9.408 43.5833C10.146 42.3593 11.712 40.3253 12.63 39.4073C13.134 38.8853 13.692 38.6693 13.692 38.2553C13.692 37.5353 12.756 36.4193 11.334 36.2213C10.938 36.1493 10.254 36.2213 9.822 36.3833L9.786 36.6353ZM16.896 63.0673C16.896 64.1833 17.796 65.0833 18.912 65.0833C20.01 65.0833 20.91 64.1833 20.91 63.0673C20.91 61.9693 20.01 61.0693 18.912 61.0693C17.796 61.0693 16.896 61.9693 16.896 63.0673ZM17.634 63.0673C17.634 62.3653 18.192 61.8073 18.912 61.8073C19.614 61.8073 20.172 62.3653 20.172 63.0673C20.172 63.7873 19.614 64.3453 18.912 64.3453C18.192 64.3453 17.634 63.7873 17.634 63.0673ZM5.358 63.7333C5.7 64.8133 6.114 65.4253 6.816 65.6593C7.23 65.7673 7.95 65.7853 8.346 65.7493C6.87 67.6753 5.394 69.9253 5.394 72.6433C5.394 75.9553 7.572 77.3413 10.038 77.3413C13.818 77.3413 15.15 74.8753 15.492 72.9493C15.78 71.3473 15.708 69.7993 15.708 69.1153C15.708 68.5213 15.888 68.4853 16.068 69.0433C16.464 70.2673 17.004 71.4913 17.472 72.1393C17.814 72.6613 18.264 73.0753 18.75 73.0753C19.254 73.0753 19.488 72.6073 19.488 72.0133C19.488 71.1133 19.128 70.6453 18.696 70.2673C17.886 69.5293 16.968 68.3413 16.716 67.0273C16.554 66.1453 16.572 65.2453 16.572 64.2373C16.572 63.5533 15.96 62.9233 15.258 62.9053C14.772 62.8873 14.376 63.3013 14.376 63.9493C14.376 64.4893 14.592 65.4253 14.7 65.9113C14.862 66.7393 14.898 67.4413 14.898 68.1253C14.898 72.6433 13.494 75.2533 10.11 75.2533C8.238 75.2533 6.798 74.1733 6.798 72.2293C6.798 69.4753 8.346 67.2433 9.552 66.0913C10.146 65.5333 10.866 65.3533 11.388 65.1193C11.892 64.8853 12 64.6693 12 64.3453C12 63.9133 11.082 63.1033 10.47 63.1033C10.164 63.1033 10.056 63.2833 9.642 63.5173C8.994 63.9133 7.716 64.1113 7.014 64.1113C6.474 64.1113 6.006 63.8953 5.538 63.5533L5.358 63.7333ZM9.786 88.6353C10.128 88.7793 10.614 88.9953 10.884 89.2473C11.082 89.4273 11.136 89.6793 10.956 90.0213C10.434 91.0653 7.698 95.6013 6.51 97.6713C5.52 99.3633 4.548 100.677 4.548 101.613C4.548 102.279 4.944 102.963 5.61 102.963C6.294 102.963 6.618 102.477 6.816 101.919C7.104 101.073 7.41 99.9753 7.86 98.9493C8.508 97.4553 9.768 95.8713 11.226 95.8713C12.198 95.8713 12.468 96.4833 12.468 97.2393C12.468 98.3913 12.27 99.3813 12.288 100.605C12.306 102.099 13.242 103.053 14.952 103.053C17.454 103.053 19.632 101.289 20.028 97.0593L19.74 96.9873C18.984 98.9313 17.4 101.055 15.474 101.055C14.754 101.055 14.25 100.767 14.25 99.8673C14.25 98.8593 14.304 98.0673 14.232 97.2033C14.124 95.8353 13.296 95.0613 11.766 95.0613C11.19 95.0613 10.38 95.2413 9.498 95.6913C9.39 95.7453 9.336 95.6913 9.408 95.5833C10.146 94.3593 11.712 92.3253 12.63 91.4073C13.134 90.8853 13.692 90.6693 13.692 90.2553C13.692 89.5353 12.756 88.4193 11.334 88.2213C10.938 88.1493 10.254 88.2213 9.822 88.3833L9.786 88.6353Z" fill="white"></path><rect x="0.5" y="0.833252" width="24" height="109" stroke="#F1F1F1"></rect></svg>

<svg width="25" height="111" fill="none" xmlns="http://www.w3.org/2000/svg"><path d="M6.636 12.471c.36.072.756.108 1.062.27.252.144.36.306.396.81.072.846.108 2.196.108 3.528.036 1.854.018 3.69.072 4.86.108 2.412 1.818 2.916 4.86 2.916 1.692 0 3.06-.108 3.852-.306.738-.198 1.08-.522 1.08-.972 0-.738-.828-1.098-1.62-1.098-.378 0-2.088.576-4.338.576-1.962 0-2.286-.306-2.304-1.836-.036-.864.054-2.934.144-4.59.054-.918.09-1.728.162-2.142.126-.702.486-.846.486-1.242 0-.594-1.314-1.584-2.43-1.584-.504 0-1.116.288-1.566.54l.036.27Zm6.282-1.566c.414.072.72.108 1.044.216.36.108.54.288.558.612.072.972.018 2.826 0 3.744-.018.774-.108 2.412-.252 2.988-.126.522-.342.558-.72.558-.342 0-1.314-.198-2.214-.432l-.09.27c.756.432 1.548.9 1.8 1.548.198.486.432.648.882.648.936 0 1.566-.684 1.782-1.566.252-.918.36-2.934.414-4.122.054-.954.144-1.836.198-2.484.072-.666.468-.918.468-1.278 0-.612-1.296-1.566-2.43-1.566-.432 0-.972.288-1.458.612l.018.252Zm-3.834 6.642c1.854-.738 5.13-1.44 7.254-1.638 1.602-.126 2.16.126 3.006.126.684 0 1.08-.162 1.08-.756 0-.9-1.134-1.35-2.052-1.35-.27 0-1.062.144-3.078.612-1.602.378-4.716 1.098-6.246 1.512-1.368.36-3.618.918-4.086.918-.45 0-.846-.288-1.224-.774l-.252.09c-.018.504-.018.99.144 1.314.342.738 1.026 1.44 1.638 1.44.594 0 1.566-.666 3.816-1.494Zm.702 19.088c.342.144.828.36 1.098.612.198.18.252.432.072.774-.522 1.044-3.258 5.58-4.446 7.65-.99 1.692-1.962 3.006-1.962 3.942 0 .666.396 1.35 1.062 1.35.684 0 1.008-.486 1.206-1.044.288-.846.594-1.944 1.044-2.97.648-1.494 1.908-3.078 3.366-3.078.972 0 1.242.612 1.242 1.368 0 1.152-.198 2.142-.18 3.366.018 1.494.954 2.448 2.664 2.448 2.502 0 4.68-1.764 5.076-5.994l-.288-.072c-.756 1.944-2.34 4.068-4.266 4.068-.72 0-1.224-.288-1.224-1.188 0-1.008.054-1.8-.018-2.664-.108-1.368-.936-2.142-2.466-2.142-.576 0-1.386.18-2.268.63-.108.054-.162 0-.09-.108.738-1.224 2.304-3.258 3.222-4.176.504-.522 1.062-.738 1.062-1.152 0-.72-.936-1.836-2.358-2.034-.396-.072-1.08 0-1.512.162l-.036.252Zm7.11 26.432c0 1.116.9 2.016 2.016 2.016 1.098 0 1.998-.9 1.998-2.016 0-1.098-.9-1.998-1.998-1.998-1.116 0-2.016.9-2.016 1.998Zm.738 0c0-.702.558-1.26 1.278-1.26.702 0 1.26.558 1.26 1.26 0 .72-.558 1.278-1.26 1.278a1.26 1.26 0 0 1-1.278-1.278Zm-12.276.666c.342 1.08.756 1.692 1.458 1.926.414.108 1.134.126 1.53.09-1.476 1.926-2.952 4.176-2.952 6.894 0 3.312 2.178 4.698 4.644 4.698 3.78 0 5.112-2.466 5.454-4.392.288-1.602.216-3.15.216-3.834 0-.594.18-.63.36-.072.396 1.224.936 2.448 1.404 3.096.342.522.792.936 1.278.936.504 0 .738-.468.738-1.062 0-.9-.36-1.368-.792-1.746-.81-.738-1.728-1.926-1.98-3.24-.162-.882-.144-1.782-.144-2.79 0-.684-.612-1.314-1.314-1.332-.486-.018-.882.396-.882 1.044 0 .54.216 1.476.324 1.962.162.828.198 1.53.198 2.214 0 4.518-1.404 7.128-4.788 7.128-1.872 0-3.312-1.08-3.312-3.024 0-2.754 1.548-4.986 2.754-6.138.594-.558 1.314-.738 1.836-.972.504-.234.612-.45.612-.774 0-.432-.918-1.242-1.53-1.242-.306 0-.414.18-.828.414-.648.396-1.926.594-2.628.594-.54 0-1.008-.216-1.476-.558l-.18.18Zm4.428 24.902c.342.144.828.36 1.098.612.198.18.252.432.072.774-.522 1.044-3.258 5.58-4.446 7.65-.99 1.692-1.962 3.006-1.962 3.942 0 .666.396 1.35 1.062 1.35.684 0 1.008-.486 1.206-1.044.288-.846.594-1.944 1.044-2.97.648-1.494 1.908-3.078 3.366-3.078.972 0 1.242.612 1.242 1.368 0 1.152-.198 2.142-.18 3.366.018 1.494.954 2.448 2.664 2.448 2.502 0 4.68-1.764 5.076-5.994l-.288-.072c-.756 1.944-2.34 4.068-4.266 4.068-.72 0-1.224-.288-1.224-1.188 0-1.008.054-1.8-.018-2.664-.108-1.368-.936-2.142-2.466-2.142-.576 0-1.386.18-2.268.63-.108.054-.162 0-.09-.108.738-1.224 2.304-3.258 3.222-4.176.504-.522 1.062-.738 1.062-1.152 0-.72-.936-1.836-2.358-2.034-.396-.072-1.08 0-1.512.162l-.036.252Z" fill="#fff"/><path stroke="#F1F1F1" d="M.5.833h24v109H.5z"/></svg>
